X:218 (Edited)
T:Gentills Hornpipe (an edited version)
O:No 218 (edited)William Clarke of Feltwell
M:4/4
L:1/8
K:C
c/B/|c3G|AGFE|cdec|fedc|BcdB|efgf|e2d2|d3c/B/|c3G|AGFE|cdec|fedc|BcdB|defd|e2c2|c3::g/f/|egc'g|egc'g|afdf|a2zg/f/|gece|gece|dcdB|G2zg/e/|gec'g|gec'g|afdf|a2zg/f/|egfg|egfg|e2c2|c3:|

